X:17
T:GB/7c/17 Forty Miles
%%VWML:GB-7c-17-0
F:http://www.vwml.org/record/GB/7c/17
C:Transcribed by Simon Furey and Lewis Jones
L:1/4
M:6/4
I:linebreak $
K:C
G | c2 c G2 E | F G F D2 E | F G F E D C | G2 G G3 |[M:3/4] z G G |$[M:6/4] A A A A2 G | (c2 e G3) |[M:3/4] z G G |[M:6/4] A f e d c B | c4- c |]

